src/shared/assets/character/character-list/character-list-flash.svg

<svg width="20" height="20" viewBox="0 0 20 20" fill="none" xmlns="http://www.w3.org/2000/svg">
<path d="M13.2291 0.725886C11.7035 0.638094 9.09996 0.547406 6.53309 0.735106C5.67963 0.797519 4.94275 1.34921 4.63917 2.14707C3.34484 5.54874 2.72824 8.68645 2.46554 10.3488C2.30074 11.3917 3.05873 12.3215 4.10127 12.3931C4.99217 12.4542 6.30063 12.5176 7.82842 12.5092C7.66563 13.8317 7.496 15.5958 7.32763 17.4935C7.17684 19.1935 9.22104 20.2155 10.4378 18.9117C13.5615 15.5647 16.425 11.8426 17.9955 9.72137C18.8594 8.55445 18.0985 6.92212 16.6233 6.88374C15.9433 6.86603 15.1092 6.85587 14.1278 6.86437C14.418 5.5982 14.6805 4.22312 14.9217 2.89554C15.1176 1.81736 14.3453 0.790115 13.2291 0.725886Z" fill="black"/>
</svg>

<svg xmlns="http://www.w3.org/2000/svg" fill="none" viewBox="0 0 20 20"><path fill="#000" d="M13.23.726C11.702.638 9.1.547 6.532.736a2.2 2.2 0 0 0-1.892 1.41 42.3 42.3 0 0 0-2.173 8.202A1.765 1.765 0 0 0 4.1 12.393c.891.061 2.2.125 3.727.116a160 160 0 0 0-.5 4.985c-.151 1.7 1.893 2.721 3.11 1.418 3.124-3.347 5.987-7.07 7.557-9.19.864-1.168.104-2.8-1.372-2.838a72 72 0 0 0-2.495-.02c.29-1.266.553-2.64.794-3.968a1.833 1.833 0 0 0-1.693-2.17"/></svg>
